dji-master/img/content/specifications/speed.svg

<svg width="35" height="35" viewBox="0 0 35 35" fill="none" xmlns="http://www.w3.org/2000/svg">
<g clip-path="url(#clip0)">
<path d="M3.7638 7.78458C3.88663 7.87724 4.03109 7.9221 4.17422 7.9221C4.3809 7.9221 4.58544 7.8289 4.72003 7.65186L4.73311 7.63477C4.96436 7.3365 4.91015 6.90712 4.61188 6.67561C4.31361 6.44436 3.88396 6.49857 3.65271 6.79684C3.64924 6.80138 3.63055 6.82568 3.62708 6.83022C3.4017 7.13196 3.46312 7.55787 3.7638 7.78458Z" fill="#1AA0E8"/>
<path d="M29.8744 5.12562C26.5691 1.82034 22.1743 0 17.5 0C16.649 0 15.8049 0.0622177 14.9734 0.183182C14.948 0.185585 14.9229 0.189323 14.8981 0.194397C11.5001 0.703087 8.31661 2.20112 5.74085 4.53949C5.46127 4.79317 5.44044 5.22549 5.69412 5.50507C5.9478 5.78465 6.38012 5.80547 6.6597 5.5518C6.81057 5.41481 6.96438 5.28183 7.11979 5.15099L7.96387 6.61297C6.44367 7.60418 5.14297 8.90488 4.15176 10.4251L3.26069 9.91051C3.38619 9.67552 3.51704 9.44347 3.65429 9.21463C3.84869 8.89072 3.74348 8.47095 3.41984 8.27682C3.09593 8.08243 2.67616 8.18764 2.48177 8.51128C2.21394 8.95802 1.96747 9.4157 1.74183 9.88247C1.73809 9.88995 1.73435 9.89742 1.73088 9.9049C0.595207 12.2625 0 14.8586 0 17.5C0 17.8776 0.306015 18.1836 0.683594 18.1836H2.73438C3.11195 18.1836 3.41797 17.8776 3.41797 17.5C3.41797 11.0921 8.63117 5.87891 15.0391 5.87891C17.5104 5.87891 19.9198 6.67118 21.9028 8.12275L16.3964 13.6292C15.9624 13.4764 15.508 13.3984 15.0391 13.3984C12.7776 13.3984 10.9375 15.2383 10.9375 17.5C10.9375 19.7615 12.7776 21.6016 15.0391 21.6016C17.3008 21.6016 19.1406 19.7615 19.1406 17.5C19.1406 17.0311 19.0627 16.5766 18.9099 16.1427L24.4163 10.6363C25.8679 12.6192 26.6602 15.0286 26.6602 17.5C26.6602 17.8776 26.9662 18.1836 27.3438 18.1836C27.7211 18.1836 28.0273 17.8776 28.0273 17.5C28.0273 15.4412 27.5347 13.4209 26.6121 11.6075L31.1852 8.96709C32.6218 11.263 33.498 13.9434 33.6184 16.8164H32.1949C31.8173 16.8164 31.5113 17.1224 31.5113 17.5C31.5113 17.8776 31.8173 18.1836 32.1949 18.1836H34.3164C34.6937 18.1836 35 17.8776 35 17.5C35 12.8257 33.1797 8.4309 29.8744 5.12562ZM2.06867 16.8164H1.38161C1.46412 14.8567 1.90178 12.9357 2.66762 11.1466L3.46684 11.608C2.66014 13.1861 2.16614 14.9496 2.06867 16.8164ZM23.0051 2.33543L20.9316 5.9267C19.3193 5.10666 17.5438 4.62681 15.7227 4.53068V1.46545C16.3099 1.40083 16.9029 1.36719 17.5 1.36719C19.4325 1.36719 21.2862 1.70952 23.0051 2.33543ZM8.2122 4.30851C10.0579 3.00701 12.149 2.113 14.3555 1.67614V4.52988C12.4887 4.62708 10.7252 5.12081 9.14707 5.92777L8.2122 4.30851ZM24.788 8.33103L23.9885 9.13052C23.9883 9.13078 23.9883 9.13078 23.9883 9.13105L15.3291 17.79C15.172 17.9473 14.9063 17.9473 14.7491 17.79C14.5921 17.6327 14.5921 17.367 14.7491 17.21L24.208 7.75105C24.2847 7.67441 24.3875 7.63222 24.498 7.63222C24.6083 7.63222 24.7114 7.67441 24.788 7.75105C24.8647 7.82768 24.9068 7.93049 24.9068 8.04104C24.9068 8.15159 24.8647 8.25439 24.788 8.33103ZM17.7734 17.5C17.7734 19.0076 16.5467 20.2344 15.0391 20.2344C13.5314 20.2344 12.3047 19.0076 12.3047 17.5C12.3047 15.9921 13.5314 14.7656 15.0391 14.7656C15.1104 14.7656 15.1809 14.7691 15.2508 14.7744L13.7822 16.2431C13.0892 16.9363 13.0892 18.0637 13.7822 18.7566C14.1288 19.1032 14.584 19.2765 15.0391 19.2765C15.4941 19.2765 15.9494 19.1032 16.296 18.7566L17.7644 17.288C17.7697 17.3582 17.7734 17.4287 17.7734 17.5ZM25.9288 10.4235C25.7597 10.1628 25.5811 9.9081 25.3928 9.6595L25.7547 9.29768C26.0895 8.96309 26.274 8.51662 26.274 8.04104C26.274 7.56546 26.0895 7.11899 25.7547 6.78413C25.4198 6.44928 24.9736 6.26503 24.498 6.26503C24.0224 6.26503 23.576 6.44955 23.2411 6.7844L22.8793 7.14596C22.631 6.9577 22.3759 6.77933 22.1156 6.61003L24.2793 2.86228C26.7112 3.99315 28.8161 5.71228 30.41 7.83623L25.9288 10.4235Z" fill="#1AA0E8"/>
<path d="M30.2313 16.8164H30.2129C29.8353 16.8164 29.5293 17.1224 29.5293 17.5C29.5293 17.8776 29.8353 18.1836 30.2129 18.1836H30.2313C30.6089 18.1836 30.9149 17.8776 30.9149 17.5C30.9149 17.1224 30.6089 16.8164 30.2313 16.8164Z" fill="#1AA0E8"/>
<path d="M18.4932 28.8389C18.8705 28.8389 19.1768 28.5326 19.1768 28.1553C19.1768 27.7777 18.8705 27.4717 18.4932 27.4717H16.3057C15.9281 27.4717 15.6221 27.7777 15.6221 28.1553V32.1292C15.6221 32.5068 15.9281 32.8128 16.3057 32.8128H18.4932C18.8705 32.8128 19.1768 32.5068 19.1768 32.1292C19.1768 31.7516 18.8705 31.4456 18.4932 31.4456H16.9893V30.8258H17.3994C17.7767 30.8258 18.083 30.5198 18.083 30.1422C18.083 29.7647 17.7767 29.4586 17.3994 29.4586H16.9893V28.8389H18.4932Z" fill="#1AA0E8"/>
<path d="M13.1255 27.4717H12.1318C11.7545 27.4717 11.4482 27.7777 11.4482 28.1553V32.1292C11.4482 32.5068 11.7545 32.8128 12.1318 32.8128C12.5094 32.8128 12.8154 32.5068 12.8154 32.1292V30.8258H13.1255C14.0502 30.8258 14.8027 30.0733 14.8027 29.1486C14.8027 28.2239 14.0502 27.4717 13.1255 27.4717ZM13.1255 29.4586H12.8154V28.8389H13.1255C13.2934 28.8389 13.4355 28.9807 13.4355 29.1486C13.4355 29.3166 13.2934 29.4586 13.1255 29.4586Z" fill="#1AA0E8"/>
<path d="M22.8679 28.8389C23.2455 28.8389 23.5515 28.5326 23.5515 28.1553C23.5515 27.7777 23.2455 27.4717 22.8679 27.4717H20.6807C20.3031 27.4717 19.9971 27.7777 19.9971 28.1553V32.1292C19.9971 32.5068 20.3031 32.8128 20.6807 32.8128H22.8679C23.2455 32.8128 23.5515 32.5068 23.5515 32.1292C23.5515 31.7516 23.2455 31.4456 22.8679 31.4456H21.3643V30.8258H21.7744C22.1517 30.8258 22.458 30.5198 22.458 30.1422C22.458 29.7647 22.1517 29.4586 21.7744 29.4586H21.3643V28.8389H22.8679Z" fill="#1AA0E8"/>
<path d="M26.1494 27.4717H25.0557C24.6784 27.4717 24.3721 27.7777 24.3721 28.1553V32.1292C24.3721 32.5068 24.6784 32.8128 25.0557 32.8128H26.1494C27.1297 32.8128 27.9268 32.0155 27.9268 31.0355V29.249C27.9268 28.2688 27.1297 27.4717 26.1494 27.4717ZM26.5596 31.0355C26.5596 31.2579 26.3718 31.4456 26.1494 31.4456H25.7393V28.8389H26.1494C26.3718 28.8389 26.5596 29.0266 26.5596 29.249V31.0355Z" fill="#1AA0E8"/>
<path d="M8.75045 28.8389H9.9446C10.3219 28.8389 10.6282 28.5326 10.6282 28.1553C10.6282 27.7777 10.3219 27.4717 9.9446 27.4717H8.75045C7.82573 27.4717 7.07351 28.2239 7.07351 29.1486C7.07351 30.0733 7.82573 30.8258 8.75045 30.8258C8.78463 30.8258 8.81801 30.8224 8.85059 30.8176C8.88343 30.8226 8.91681 30.8258 8.95099 30.8258C9.11895 30.8258 9.26074 30.9676 9.26074 31.1359C9.26074 31.3038 9.11895 31.4456 8.95099 31.4456H7.75684C7.37952 31.4456 7.07324 31.7516 7.07324 32.1292C7.07324 32.5068 7.37952 32.8128 7.75684 32.8128H8.95099C9.87571 32.8128 10.6279 32.0606 10.6279 31.1359C10.6279 30.2109 9.87571 29.4586 8.95099 29.4586C8.91681 29.4586 8.88343 29.4619 8.85059 29.4667C8.81801 29.4619 8.78463 29.4586 8.75045 29.4586C8.58249 29.4586 8.4407 29.3166 8.4407 29.1486C8.4407 28.9807 8.58249 28.8389 8.75045 28.8389Z" fill="#1AA0E8"/>
<path d="M28.3373 25.2842H6.66309C5.68282 25.2842 4.88574 26.0815 4.88574 27.0615V33.223C4.88574 34.203 5.68282 35.0003 6.66309 35.0003H28.3373C29.3173 35.0003 30.1146 34.203 30.1146 33.223V27.0615C30.1146 26.0815 29.3175 25.2842 28.3373 25.2842ZM28.7474 33.223C28.7474 33.4454 28.5597 33.6331 28.3373 33.6331H6.66309C6.44065 33.6331 6.25293 33.4454 6.25293 33.223V27.0615C6.25293 26.8391 6.44065 26.6514 6.66309 26.6514H28.3373C28.5597 26.6514 28.7474 26.8391 28.7474 27.0615V33.223Z" fill="#1AA0E8"/>
</g>
<defs>
<clipPath id="clip0">
<rect width="35" height="35" fill="white"/>
</clipPath>
</defs>
</svg>

<svg width="35" height="35" fill="none" xmlns="http://www.w3.org/2000/svg"><g clip-path="url(#clip0)" fill="#1AA0E8"><path d="M3.764 7.785a.684.684 0 00.956-.133l.013-.017a.684.684 0 00-1.08-.838l-.026.033a.683.683 0 00.137.955z"/><path d="M29.874 5.126A17.386 17.386 0 0017.5 0a17.548 17.548 0 00-2.602.194A17.451 17.451 0 005.741 4.54a.684.684 0 00.919 1.013c.15-.137.304-.27.46-.401l.844 1.462a13.09 13.09 0 00-3.812 3.812l-.891-.514c.125-.235.256-.468.393-.696a.683.683 0 10-1.172-.704c-.268.447-.515.905-.74 1.371l-.011.023A17.502 17.502 0 000 17.5c0 .378.306.684.684.684h2.05a.684.684 0 00.684-.684c0-6.408 5.213-11.621 11.621-11.621 2.471 0 4.88.792 6.864 2.244l-5.507 5.506a4.106 4.106 0 00-5.459 3.87 4.106 4.106 0 004.102 4.103 4.106 4.106 0 003.87-5.46l5.507-5.506A11.636 11.636 0 0126.66 17.5a.684.684 0 101.367 0 13 13 0 00-1.415-5.893l4.573-2.64a16.028 16.028 0 012.433 7.85h-1.423a.684.684 0 100 1.367h2.121A.684.684 0 0035 17.5c0-4.674-1.82-9.07-5.126-12.374zM2.07 16.816h-.687c.082-1.96.52-3.88 1.286-5.67l.799.462a12.899 12.899 0 00-1.398 5.208zm20.936-14.48l-2.073 3.59a13.01 13.01 0 00-5.21-1.395V1.465a16.057 16.057 0 017.282.87zM8.212 4.308a16.07 16.07 0 016.143-2.633V4.53a12.89 12.89 0 00-5.208 1.398l-.935-1.62zM24.788 8.33l-.8.8-8.659 8.659a.415.415 0 01-.58 0 .416.416 0 010-.58l9.459-9.459a.407.407 0 01.29-.119.407.407 0 01.409.409c0 .11-.042.213-.119.29zm-7.015 9.17a2.738 2.738 0 01-2.734 2.734 2.738 2.738 0 01-2.734-2.734 2.737 2.737 0 012.946-2.726l-1.469 1.47a1.78 1.78 0 000 2.513 1.776 1.776 0 002.514 0l1.468-1.469c.006.07.01.14.01.212zm8.156-7.076c-.17-.261-.348-.516-.536-.764l.362-.362c.335-.335.519-.781.519-1.257 0-.476-.184-.922-.52-1.257a1.765 1.765 0 00-1.256-.519c-.476 0-.922.185-1.257.52l-.362.361a12.95 12.95 0 00-.763-.536l2.163-3.748a16.235 16.235 0 016.131 4.974l-4.481 2.588z"/><path d="M30.231 16.816h-.018a.684.684 0 100 1.368h.018a.684.684 0 100-1.368zM18.493 28.839a.684.684 0 000-1.367h-2.187a.684.684 0 00-.684.683v3.974c0 .378.306.684.684.684h2.187a.684.684 0 000-1.367H16.99v-.62h.41a.684.684 0 000-1.367h-.41v-.62h1.504zm-5.367-1.367h-.994a.684.684 0 00-.684.683v3.974a.684.684 0 001.367 0v-1.303h.31a1.68 1.68 0 001.678-1.677 1.68 1.68 0 00-1.678-1.677zm0 1.987h-.31v-.62h.31c.167 0 .31.142.31.31s-.143.31-.31.31zm9.742-.62a.684.684 0 000-1.367H20.68a.684.684 0 00-.684.683v3.974c0 .378.306.684.684.684h2.187a.684.684 0 100-1.367h-1.504v-.62h.41a.684.684 0 000-1.367h-.41v-.62h1.504zm3.282-1.367h-1.094a.684.684 0 00-.684.683v3.974c0 .378.306.684.684.684h1.093a1.78 1.78 0 001.778-1.778V29.25a1.78 1.78 0 00-1.778-1.777zm.41 3.563c0 .223-.188.41-.41.41h-.41V28.84h.41c.222 0 .41.188.41.41v1.787zM8.75 28.839h1.195a.684.684 0 000-1.367H8.75c-.924 0-1.676.752-1.676 1.677 0 .924.752 1.677 1.676 1.677a.686.686 0 00.1-.008.665.665 0 00.101.008c.168 0 .31.142.31.31s-.142.31-.31.31H7.757a.684.684 0 000 1.367H8.95c.925 0 1.677-.752 1.677-1.677s-.752-1.677-1.677-1.677a.692.692 0 00-.1.008.686.686 0 00-.1-.008.314.314 0 01-.31-.31c0-.168.141-.31.31-.31z"/><path d="M28.337 25.284H6.663a1.78 1.78 0 00-1.777 1.777v6.162c0 .98.797 1.777 1.777 1.777h21.674a1.78 1.78 0 001.778-1.777v-6.162a1.78 1.78 0 00-1.778-1.777zm.41 7.939c0 .222-.187.41-.41.41H6.663a.415.415 0 01-.41-.41v-6.162c0-.222.188-.41.41-.41h21.674c.223 0 .41.188.41.41v6.162z"/></g><defs><clipPath id="clip0"><path fill="#fff" d="M0 0h35v35H0z"/></clipPath></defs></svg>
